Obsidian-SemiLight/actions/24s/view-time-schedule-child-insert.svg

<svg viewBox="0 0 24 24" xmlns="http://www.w3.org/2000/svg"><path d="m4 4v10h1v-6h14v2h1v-6h-2v2.0996094h-2v-2.0996094h-8v2.0996094h-2v-2.0996094zm8 8v8h8v-8h-1v1h-1v-1h-4v1h-1v-1zm1 2h6v5h-6zm-7 1v2h-2v1h2v2h1v-2h2v-1h-2v-2zm8 0v1 1 1h1v-1h2v1h1v-3h-1v1h-2v-1z" fill="#4d4d4d"/></svg>

<svg xmlns="http://www.w3.org/2000/svg" viewBox="0 0 24 24">
  <defs id="defs3051">
    <style type="text/css" id="current-color-scheme">
      .ColorScheme-Text {
        color:#4d4d4d;
      }
      </style>
  </defs>
 <path style="fill:currentColor;fill-opacity:1;stroke:none" 
     d="M 4 4 L 4 14 L 5 14 L 5 8 L 19 8 L 19 10 L 20 10 L 20 4 L 18 4 L 18 6.0996094 L 16 6.0996094 L 16 4 L 8 4 L 8 6.0996094 L 6 6.0996094 L 6 4 L 4 4 z M 12 12 L 12 20 L 20 20 L 20 12 L 19 12 L 19 13 L 18 13 L 18 12 L 14 12 L 14 13 L 13 13 L 13 12 L 12 12 z M 13 14 L 19 14 L 19 19 L 13 19 L 13 14 z M 6 15 L 6 17 L 4 17 L 4 18 L 6 18 L 6 20 L 7 20 L 7 18 L 9 18 L 9 17 L 7 17 L 7 15 L 6 15 z M 14 15 L 14 16 L 14 17 L 14 18 L 15 18 L 15 17 L 17 17 L 17 18 L 18 18 L 18 15 L 17 15 L 17 16 L 15 16 L 15 15 L 14 15 z "
     class="ColorScheme-Text"
     />
</svg>
